packages/ui-icons/src/Basic/24/Bonus_24.svg

<svg xmlns="http://www.w3.org/2000/svg" viewBox="0 0 32 32"><path d="M28 11h-4.76A4.49 4.49 0 0 0 16 5.71 4.49 4.49 0 0 0 8.76 11H4v8h2v9h20v-9h2ZM17 8.5a2.5 2.5 0 1 1 2.5 2.5H17ZM12.5 6A2.5 2.5 0 0 1 15 8.5V11h-2.5a2.5 2.5 0 0 1 0-5ZM15 26H8v-7h7Zm9 0h-7v-7h7Zm2-9H6v-4h20Z"/></svg>

<svg id="Ready" xmlns="http://www.w3.org/2000/svg" viewBox="0 0 32 32"><title>Megaicons_work_24_1.8_cp</title><path d="M28,11H23.24A4.49,4.49,0,0,0,16,5.71,4.49,4.49,0,0,0,8.76,11H4v8H6v9H26V19h2ZM17,8.5A2.5,2.5,0,1,1,19.5,11H17ZM12.5,6A2.5,2.5,0,0,1,15,8.5V11H12.5a2.5,2.5,0,0,1,0-5ZM15,26H8V19h7Zm9,0H17V19h7Zm2-9H6V13H26Z"/></svg>
